packages/tokens/icons/recommender/size24Px.svg

<svg viewBox="0 0 24 24" fill="none" xmlns="http://www.w3.org/2000/svg" width="1em" height="1em"><circle cx="8.5" cy="8.5" r="8" transform="matrix(-1 0 0 1 22 2)" stroke="currentColor"/><path d="M13.5 6.19353L14.2118 8.49687C14.3413 8.91588 14.7286 9.20163 15.1672 9.20163L17.5219 9.20163L15.5744 10.6893C15.2414 10.9437 15.1023 11.3788 15.2261 11.7792L15.9596 14.153L14.1071 12.7378C13.7487 12.464 13.2513 12.464 12.8929 12.7378L11.0404 14.153L11.7739 11.7792C11.8977 11.3788 11.7586 10.9437 11.4256 10.6893L9.47815 9.20163L11.8328 9.20163C12.2714 9.20163 12.6587 8.91588 12.7882 8.49687L13.5 6.19353Z" stroke="currentColor" stroke-linejoin="round"/><path d="M2.5 21.5L7.5 16.5" stroke="currentColor" stroke-linecap="round" stroke-linejoin="round"/></svg>

<svg xmlns="http://www.w3.org/2000/svg" fill="none" viewBox="0 0 24 24" width="1em" height="1em"><circle cx="8.5" cy="8.5" r="8" stroke="currentColor" transform="matrix(-1 0 0 1 22 2)"/><path stroke="currentColor" stroke-linejoin="round" d="m13.5 6.194.712 2.303a1 1 0 0 0 .955.705h2.355l-1.948 1.487a1 1 0 0 0-.348 1.09l.734 2.374-1.853-1.415a1 1 0 0 0-1.214 0l-1.853 1.415.734-2.374a1 1 0 0 0-.348-1.09L9.478 9.202h2.355a1 1 0 0 0 .955-.705l.712-2.303Z"/><path stroke="currentColor" stroke-linecap="round" stroke-linejoin="round" d="m2.5 21.5 5-5"/></svg>
